X: 39494
T: Tatter Jack Walsh
R: jig
M: 6/8
K: Dmixolydian
|:f2 d ded|cAB c2 d|cAF GFG|A2 d efg|
f2 d ded|cAB c2 d|cAF GFG|Ad^c d3:|
|:dfa afd|dfa a3|ceg gec|ceg g3|
fdf ece|dAB c2 d|cAF GFG|Ad^c d3:|

